X: 2958
T: Barry's Bay
R: waltz
M: 3/4
K: Gmajor
e dc|:B2 GB dg|b4 ab|c'e' e'c' bc'|e3 g fe|
dc AB cd|f2 e2 d2|B3 A Be|d3 e dc|
B2 GB dg|b4 ab|c'e' e'c' bc'|e3 g fe|dc AB cd|
f2 e2 d2|1 g6-|g3 e dc:|2 g6-|g6||
|:d3 d d2|f2 e2 d2|B3 G Bd|g2 f2 g2|
a4 aa|a2 d2 c2|B6|B2 A2 B2|
c6|f2 e2 d2|B3 G Bd|g2 f2 g2|A4 AB|
c2 B2 A2|1 G6-|G6:|2 G6-|G3||

